svg/set/BRO/C.svg

<?xml version="1.0" encoding="utf-8"?>
<!-- Generator: Adobe Illustrator 15.1.0, SVG Export Plug-In . SVG Version: 6.00 Build 0)  -->
<!DOCTYPE svg PUBLIC "-//W3C//DTD SVG 1.1//EN" "http://www.w3.org/Graphics/SVG/1.1/DTD/svg11.dtd">
<svg version="1.1" id="Layer_1" xmlns="http://www.w3.org/2000/svg" xmlns:xlink="http://www.w3.org/1999/xlink" x="0px" y="0px"
	 width="160px" height="132px" viewBox="0 0 160 132" enable-background="new 0 0 160 132" xml:space="preserve">
<g id="Layer_1_1_">
</g>
<g id="Layer_3" display="none">
</g>
<g>
	<path fill="#FFFFFF" d="M61.314,112.952c-1.678-0.396-3.335-0.875-4.962-1.44l-12.628,11.914L20.96,105.21l8.967-15.118
		c-0.883-1.46-1.69-2.965-2.42-4.506L10.06,85.079L6.844,56.101l17.474-4.463c0.474-1.828,1.052-3.63,1.729-5.395L5.234,2.816
		l31.327,25.449l9.151-11.435l15.486,9.185c1.339-0.834,2.718-1.607,4.129-2.313L65.841,6.01L94.82,2.796l4.336,16.975
		c1.678,0.395,3.334,0.875,4.961,1.441l12.629-11.915l22.764,18.217l-8.967,15.117c0.883,1.46,1.691,2.965,2.42,4.505l17.447,0.508
		l3.216,28.978l-17.474,4.463c-0.473,1.828-1.051,3.632-1.729,5.396l20.812,43.429l-31.326-25.45l-9.15,11.436l-15.486-9.185
		c-1.34,0.835-2.719,1.604-4.129,2.312l-0.515,17.693l-28.979,3.215L61.314,112.952z"/>
	<path d="M81.463,64.292l-11.037-8.966c3.97-5.186,10.221-8.532,17.254-8.532c11.996,0,21.721,9.724,21.721,21.722
		c0,5.422-1.991,10.379-5.278,14.185l-11.04-8.97c1.307-1.353,2.113-3.188,2.113-5.217c0-4.152-3.365-7.516-7.516-7.516
		C85.094,60.999,82.814,62.304,81.463,64.292z M72.791,71.725c-4.15,0-7.517-3.363-7.517-7.516c0-2.028,0.808-3.865,2.113-5.217
		l-11.039-8.968c-3.286,3.806-5.278,8.762-5.278,14.185c0,11.996,9.725,21.721,21.721,21.721c7.033,0,13.283-3.348,17.254-8.531
		l-11.037-8.967C77.654,70.418,75.376,71.725,72.791,71.725z M129.6,86.625c1.258-2.906,2.223-5.967,2.855-9.148l16.363-4.18
		l-2.369-21.355l-16.405-0.477c-1.247-3.096-2.823-6.022-4.687-8.739l8.401-14.164l-16.776-13.425l-11.849,11.179
		c-3.038-1.257-6.241-2.198-9.569-2.777L91.496,7.603l-21.355,2.37l-0.482,16.582c-2.947,1.268-5.736,2.836-8.326,4.669
		L46.761,22.58l-6.556,8.193l24.07,19.556C69.7,43.358,78.163,38.87,87.68,38.87c16.372,0,29.646,13.271,29.646,29.646
		c0,7.316-2.656,14.012-7.052,19.182l32.49,26.396L129.6,86.625z M17.706,18.632l32.491,26.395
		c-4.395,5.171-7.051,11.864-7.051,19.183c0,16.373,13.271,29.646,29.645,29.646c9.516,0,17.979-4.489,23.402-11.461l24.072,19.556
		l-6.558,8.192L99.139,101.5c-2.59,1.832-5.379,3.4-8.326,4.669l-0.482,16.582l-21.354,2.369l-4.07-15.935
		c-3.327-0.58-6.531-1.521-9.569-2.779l-11.849,11.18l-16.777-13.424l8.401-14.165c-1.862-2.716-3.439-5.644-4.687-8.738
		L14.02,80.781l-2.369-21.354l16.364-4.18c0.633-3.182,1.598-6.242,2.854-9.148L17.706,18.632z"/>
</g>
</svg>

<?xml version="1.0" encoding="UTF-8" standalone="no"?>
<!-- Generator: Adobe Illustrator 15.1.0, SVG Export Plug-In . SVG Version: 6.00 Build 0)  -->

<svg
   version="1.1"
   id="Layer_1"
   x="0px"
   y="0px"
   width="150.00101"
   height="127.135"
   viewBox="0 0 150.00101 127.135"
   enable-background="new 0 0 160 132"
   xml:space="preserve"
   xmlns="http://www.w3.org/2000/svg"
   xmlns:svg="http://www.w3.org/2000/svg"><defs
   id="defs2" />
<g
   id="Layer_1_1_"
   transform="translate(-5.234,-2.796)">
</g>
<g
   id="Layer_3"
   display="none"
   transform="translate(-5.234,-2.796)">
</g>
<g
   id="g2"
   transform="translate(-5.234,-2.796)">
	<path
   fill="#ffffff"
   d="m 61.314,112.952 c -1.678,-0.396 -3.335,-0.875 -4.962,-1.44 L 43.724,123.426 20.96,105.21 29.927,90.092 c -0.883,-1.46 -1.69,-2.965 -2.42,-4.506 L 10.06,85.079 6.844,56.101 24.318,51.638 c 0.474,-1.828 1.052,-3.63 1.729,-5.395 L 5.234,2.816 36.561,28.265 45.712,16.83 61.198,26.015 c 1.339,-0.834 2.718,-1.607 4.129,-2.313 L 65.841,6.01 94.82,2.796 99.156,19.771 c 1.678,0.395 3.334,0.875 4.961,1.441 l 12.629,-11.915 22.764,18.217 -8.967,15.117 c 0.883,1.46 1.691,2.965 2.42,4.505 l 17.447,0.508 3.216,28.978 -17.474,4.463 c -0.473,1.828 -1.051,3.632 -1.729,5.396 l 20.812,43.429 -31.326,-25.45 -9.15,11.436 -15.486,-9.185 c -1.34,0.835 -2.719,1.604 -4.129,2.312 l -0.515,17.693 -28.979,3.215 z"
   id="path1" />
	<path
   d="M 81.463,64.292 70.426,55.326 c 3.97,-5.186 10.221,-8.532 17.254,-8.532 11.996,0 21.721,9.724 21.721,21.722 0,5.422 -1.991,10.379 -5.278,14.185 l -11.04,-8.97 c 1.307,-1.353 2.113,-3.188 2.113,-5.217 0,-4.152 -3.365,-7.516 -7.516,-7.516 -2.586,0.001 -4.866,1.306 -6.217,3.294 z m -8.672,7.433 c -4.15,0 -7.517,-3.363 -7.517,-7.516 0,-2.028 0.808,-3.865 2.113,-5.217 L 56.348,50.024 c -3.286,3.806 -5.278,8.762 -5.278,14.185 0,11.996 9.725,21.721 21.721,21.721 7.033,0 13.283,-3.348 17.254,-8.531 L 79.008,68.432 c -1.354,1.986 -3.632,3.293 -6.217,3.293 z m 56.809,14.9 c 1.258,-2.906 2.223,-5.967 2.855,-9.148 l 16.363,-4.18 -2.369,-21.355 -16.405,-0.477 c -1.247,-3.096 -2.823,-6.022 -4.687,-8.739 l 8.401,-14.164 -16.776,-13.425 -11.849,11.179 c -3.038,-1.257 -6.241,-2.198 -9.569,-2.777 L 91.496,7.603 70.141,9.973 69.659,26.555 c -2.947,1.268 -5.736,2.836 -8.326,4.669 L 46.761,22.58 40.205,30.773 64.275,50.329 C 69.7,43.358 78.163,38.87 87.68,38.87 c 16.372,0 29.646,13.271 29.646,29.646 0,7.316 -2.656,14.012 -7.052,19.182 l 32.49,26.396 z M 17.706,18.632 50.197,45.027 c -4.395,5.171 -7.051,11.864 -7.051,19.183 0,16.373 13.271,29.646 29.645,29.646 9.516,0 17.979,-4.489 23.402,-11.461 l 24.072,19.556 -6.558,8.192 -14.568,-8.643 c -2.59,1.832 -5.379,3.4 -8.326,4.669 l -0.482,16.582 -21.354,2.369 -4.07,-15.935 c -3.327,-0.58 -6.531,-1.521 -9.569,-2.779 L 43.489,117.586 26.712,104.162 35.113,89.997 C 33.251,87.281 31.674,84.353 30.426,81.259 L 14.02,80.781 11.651,59.427 28.015,55.247 c 0.633,-3.182 1.598,-6.242 2.854,-9.148 z"
   id="path2" />
</g>
</svg>
